Newaita/actions/16/visibility.svg

<svg height="16" viewBox="0 0 16 16" width="16" xmlns="http://www.w3.org/2000/svg"><g fill="#424242"><path d="m7.9375 4.097656c-3.035156 0-5.660156 1.769532-6.875 4.34375-.105469.214844-.089844.46875.046875.664063.132813.195312.363281.304687.601563.285156.234374-.023437.441406-.167969.539062-.382813 1.007812-2.128906 3.164062-3.59375 5.6875-3.59375 2.527344 0 4.683594 1.464844 5.6875 3.59375.097656.214844.304688.359376.542969.382813.234375.019531.464843-.089844.601562-.285156.132813-.195313.152344-.449219.046875-.664063-1.21875-2.574218-3.839844-4.34375-6.878906-4.34375zm0 0"/><path d="m7.9375 4.09375c-2.199219 0-3.96875 1.769531-3.96875 3.96875s1.769531 3.96875 3.96875 3.96875 3.96875-1.769531 3.96875-3.96875-1.769531-3.96875-3.96875-3.96875zm0 1.324219c1.464844 0 2.648438 1.179687 2.648438 2.644531s-1.183594 2.648438-2.648438 2.648438-2.644531-1.183594-2.644531-2.648438 1.179687-2.644531 2.644531-2.644531zm0 0"/><path d="m7.9375 6.738281c-.730469 0-1.324219.566407-1.324219 1.269531v.109376c0 .703124.59375 1.269531 1.324219 1.269531.734375 0 1.324219-.566407 1.324219-1.269531v-.109376c0-.703124-.589844-1.269531-1.324219-1.269531zm0 .664063c.367188 0 .664062.28125.664062.632812v.054688c0 .351562-.296874.636718-.664062.636718s-.660156-.285156-.660156-.636718v-.054688c0-.351562.292968-.632812.660156-.632812zm0 0"/></g></svg>

<?xml version="1.0" encoding="UTF-8"?>
<svg xmlns="http://www.w3.org/2000/svg" xmlns:xlink="http://www.w3.org/1999/xlink" width="16px" height="16px" viewBox="0 0 16 16" version="1.1">
<g id="surface1">
<path style=" stroke:none;fill-rule:nonzero;fill:rgb(25.882354%,25.882354%,25.882354%);fill-opacity:1;" d="M 7.9375 4.097656 C 4.902344 4.097656 2.277344 5.867188 1.0625 8.441406 C 0.957031 8.65625 0.972656 8.910156 1.109375 9.105469 C 1.242188 9.300781 1.472656 9.410156 1.710938 9.390625 C 1.945312 9.367188 2.152344 9.222656 2.25 9.007812 C 3.257812 6.878906 5.414062 5.414062 7.9375 5.414062 C 10.464844 5.414062 12.621094 6.878906 13.625 9.007812 C 13.722656 9.222656 13.929688 9.367188 14.167969 9.390625 C 14.402344 9.410156 14.632812 9.300781 14.769531 9.105469 C 14.902344 8.910156 14.921875 8.65625 14.816406 8.441406 C 13.597656 5.867188 10.976562 4.097656 7.9375 4.097656 Z M 7.9375 4.097656 "/>
<path style=" stroke:none;fill-rule:nonzero;fill:rgb(25.882354%,25.882354%,25.882354%);fill-opacity:1;" d="M 7.9375 4.09375 C 5.738281 4.09375 3.96875 5.863281 3.96875 8.0625 C 3.96875 10.261719 5.738281 12.03125 7.9375 12.03125 C 10.136719 12.03125 11.90625 10.261719 11.90625 8.0625 C 11.90625 5.863281 10.136719 4.09375 7.9375 4.09375 Z M 7.9375 5.417969 C 9.402344 5.417969 10.585938 6.597656 10.585938 8.0625 C 10.585938 9.527344 9.402344 10.710938 7.9375 10.710938 C 6.472656 10.710938 5.292969 9.527344 5.292969 8.0625 C 5.292969 6.597656 6.472656 5.417969 7.9375 5.417969 Z M 7.9375 5.417969 "/>
<path style=" stroke:none;fill-rule:nonzero;fill:rgb(25.882354%,25.882354%,25.882354%);fill-opacity:1;" d="M 7.9375 6.738281 C 7.207031 6.738281 6.613281 7.304688 6.613281 8.007812 L 6.613281 8.117188 C 6.613281 8.820312 7.207031 9.386719 7.9375 9.386719 C 8.671875 9.386719 9.261719 8.820312 9.261719 8.117188 L 9.261719 8.007812 C 9.261719 7.304688 8.671875 6.738281 7.9375 6.738281 Z M 7.9375 7.402344 C 8.304688 7.402344 8.601562 7.683594 8.601562 8.035156 L 8.601562 8.089844 C 8.601562 8.441406 8.304688 8.726562 7.9375 8.726562 C 7.570312 8.726562 7.277344 8.441406 7.277344 8.089844 L 7.277344 8.035156 C 7.277344 7.683594 7.570312 7.402344 7.9375 7.402344 Z M 7.9375 7.402344 "/>
</g>
</svg>
